icons/dbml.svg

<!--
  - The MIT License (MIT)
  -
  - Copyright (c) 2015-2024 Elior "Mallowigi" Boukhobza
  -
  - Permission is hereby granted, free of charge, to any person obtaining a copy
  - of this software and associated documentation files (the "Software"), to deal
  - in the Software without restriction, including without limitation the rights
  - to use, copy, modify, merge, publish, distribute, sublicense, and/or sell
  - copies of the Software, and to permit persons to whom the Software is
  - furnished to do so, subject to the following conditions:
  -
  - The above copyright notice and this permission notice shall be included in all
  - copies or substantial portions of the Software.
  -
  - THE SOFTWARE IS PROVIDED "AS IS", WITHOUT WARRANTY OF ANY KIND, EXPRESS OR
  - IMPLIED, INCLUDING BUT NOT LIMITED TO THE WARRANTIES OF MERCHANTABILITY,
  - FITNESS FOR A PARTICULAR PURPOSE AND NONINFRINGEMENT. IN NO EVENT SHALL THE
  - AUTHORS OR COPYRIGHT HOLDERS BE LIABLE FOR ANY CLAIM, DAMAGES OR OTHER
  - LIABILITY, WHETHER IN AN ACTION OF CONTRACT, TORT OR OTHERWISE, ARISING FROM,
  - OUT OF OR IN CONNECTION WITH THE SOFTWARE OR THE USE OR OTHER DEALINGS IN THE
  - SOFTWARE.
  -
  -->

<svg width="16px" height="16px" viewBox="12 12 186 186" fill="none" xmlns="http://www.w3.org/2000/svg">
  <g fill="#287EFF" stroke="#287EFF" data-iconColor="DBML">
    <path
        d="M36 127.061V150.073C36 157.665 62.2412 168.691 103.359 168.691C144.477 168.691 170.718 157.665 170.718 150.073V127.061C156.866 136.091 130.019 140.764 103.359 140.764C76.6994 140.764 49.8519 136.091 36 127.061Z"
    />
    <path
        d="M36.2816 85.0696V110.74C36.2816 118.331 62.5228 129.358 103.641 129.358C144.759 129.358 171 118.331 171 110.74V85.0696C158.11 94.9886 133.37 101.431 103.641 101.431C73.9113 101.431 49.1712 94.9886 36.2816 85.0696Z"
    />
    <path d="M110.325 39L96.9414 88.9488" stroke-width="10" stroke-linecap="round"/>
    <path
        d="M76.0788 79.0563L76.1295 79.0778L76.1818 79.0952C76.6384 79.2474 77.1121 79.3453 77.5869 79.3453C78.3673 79.3453 79.06 79.0323 79.5813 78.4636C80.1521 77.8409 80.3414 77.0538 80.3414 76.3057V75.4146C80.3414 74.664 80.1448 73.9445 79.7086 73.3157C79.2796 72.6971 78.678 72.251 77.9991 71.9352L77.9702 71.9217L77.9406 71.9096L58.5427 63.942L77.8989 56.0527C78.6245 55.8015 79.2552 55.3654 79.703 54.714C80.1456 54.0702 80.3414 53.3334 80.3414 52.5664V51.6396C80.3414 50.8915 80.1521 50.1044 79.5813 49.4817C79.06 48.913 78.3673 48.6 77.5869 48.6C77.1121 48.6 76.6384 48.6979 76.1818 48.8501L76.1288 48.8677L76.0773 48.8896L50.0568 59.9394L50.0461 59.944L50.0354 59.9487C49.3386 60.2584 48.7157 60.6978 48.268 61.3146C47.8103 61.9452 47.6 62.6735 47.6 63.438V64.543C47.6 65.3074 47.8103 66.0358 48.268 66.6663C48.7157 67.2832 49.3386 67.7226 50.0354 68.0323L50.0468 68.0373L50.0583 68.0422L76.0788 79.0563Z"
        stroke-width="2.8"/>
    <path
        d="M131.188 79.0563L131.137 79.0778L131.085 79.0952C130.628 79.2474 130.154 79.3453 129.68 79.3453C128.899 79.3453 128.207 79.0323 127.685 78.4636C127.114 77.8409 126.925 77.0538 126.925 76.3057V75.4146C126.925 74.664 127.122 73.9445 127.558 73.3157C127.987 72.6971 128.589 72.251 129.267 71.9352L129.296 71.9217L129.326 71.9096L148.724 63.942L129.368 56.0527C128.642 55.8015 128.011 55.3654 127.564 54.714C127.121 54.0702 126.925 53.3334 126.925 52.5664V51.6396C126.925 50.8915 127.114 50.1044 127.685 49.4817C128.207 48.913 128.899 48.6 129.68 48.6C130.154 48.6 130.628 48.6979 131.085 48.8501L131.138 48.8677L131.189 48.8896L157.21 59.9394L157.221 59.944L157.231 59.9487C157.928 60.2584 158.551 60.6978 158.999 61.3146C159.456 61.9452 159.667 62.6735 159.667 63.438V64.543C159.667 65.3074 159.456 66.0358 158.999 66.6663C158.551 67.2832 157.928 67.7226 157.231 68.0323L157.22 68.0373L157.208 68.0422L131.188 79.0563Z"
        stroke-width="2.8"/>
  </g>
</svg>

<svg xmlns="http://www.w3.org/2000/svg" fill="none" viewBox="12 12 186 186"><g fill="#287eff" stroke="#287eff" data-iconColor="DBML"><path d="M36 127.061v23.012c0 7.592 26.241 18.618 67.359 18.618s67.359-11.026 67.359-18.618v-23.012c-13.852 9.03-40.699 13.703-67.359 13.703S49.852 136.091 36 127.061Z"/><path d="M36.282 85.07v25.67c0 7.591 26.24 18.618 67.359 18.618S171 118.331 171 110.74V85.07c-12.89 9.919-37.63 16.361-67.359 16.361-29.73 0-54.47-6.442-67.36-16.361Z"/><path stroke-linecap="round" stroke-width="10" d="M110.325 39 96.941 88.949"/><path stroke-width="2.8" d="m76.079 79.056.05.022.053.017c.456.152.93.25 1.405.25.78 0 1.473-.313 1.994-.881.571-.623.76-1.41.76-2.158v-.891c0-.751-.196-1.47-.632-2.1-.43-.618-1.031-1.064-1.71-1.38l-.029-.013-.03-.012-19.397-7.968 19.356-7.89c.725-.25 1.356-.687 1.804-1.338.443-.644.638-1.38.638-2.148v-.926c0-.748-.189-1.536-.76-2.158a2.65 2.65 0 0 0-1.994-.882c-.475 0-.949.098-1.405.25l-.053.018-.052.022-26.02 11.05-.01.004-.012.005c-.696.31-1.32.749-1.767 1.366-.458.63-.668 1.358-.668 2.123v1.105c0 .764.21 1.493.668 2.123.448.617 1.07 1.057 1.767 1.366l.012.005.011.005zm55.109 0-.051.022-.052.017a4.5 4.5 0 0 1-1.405.25 2.66 2.66 0 0 1-1.995-.881c-.571-.623-.76-1.41-.76-2.158v-.891c0-.751.197-1.47.633-2.1.429-.618 1.031-1.064 1.709-1.38l.029-.013.03-.012 19.398-7.968-19.356-7.89c-.726-.25-1.357-.687-1.804-1.338-.443-.644-.639-1.38-.639-2.148v-.926c0-.748.189-1.536.76-2.158a2.66 2.66 0 0 1 1.995-.882c.474 0 .948.098 1.405.25l.053.018.051.022 26.021 11.05.011.004.01.005c.697.31 1.32.749 1.768 1.366.457.63.668 1.358.668 2.123v1.105c0 .764-.211 1.493-.668 2.123-.448.617-1.071 1.057-1.768 1.366l-.011.005-.012.005z"/></g></svg>
